resources/svg/function-line.svg

<svg xmlns="http://www.w3.org/2000/svg" viewBox="0 0 24 24" fill="currentColor">
    <g>
        <path fill="none" d="M0 0h24v24H0z"/>
        <path d="M3 3h8v8H3V3zm0 10h8v8H3v-8zM13 3h8v8h-8V3zm0 10h8v8h-8v-8zm2-8v4h4V5h-4zm0 10v4h4v-4h-4zM5 5v4h4V5H5zm0 10v4h4v-4H5z"/>
    </g>
</svg>

<svg fill="currentColor" viewBox="0 0 24 24" xmlns="http://www.w3.org/2000/svg"><path d="M3 3H11V11H3V3ZM3 13H11V21H3V13ZM13 3H21V11H13V3ZM13 13H21V21H13V13ZM15 5V9H19V5H15ZM15 15V19H19V15H15ZM5 5V9H9V5H5ZM5 15V19H9V15H5Z"/></svg>
